X:2
T:Ladys Breast Nott. JC.002
T:Bonny Breast Knots, aka. JC.002
R:Reel
S:John Clare,Poet,Helpston. (1793-1864)
N:No Time signature given. Generally written as 4/4,
N:except b2, b5. G.D…Bar 2 ( E2e2d2c2 B2BA ) in ms,. Bar 5 is
N:in time sig 5/4 in Deacon (fdfd fagf e2 in ms).
N:Bar 6 in4/4, (cec fgf e2 in ms). However,on this occassion I
N:have felt justified in editing it all to 4/4. CGP.
N:Song text exists. See Deacon.
O:England
A:Northamptonshire
Z:vmp.P. Headford
M:4/4
L:1/8
Q:2/4=90
K:D
” NB”GBBG FAAF|\
” crots in ms”EedcB2BA|GBBG FAAF|dBAGF2D2:|!
|:fdfd fagf|ecec fgfe|fdgd faac|GAAGF2ED:|

